d20.svg

<svg xmlns="http://www.w3.org/2000/svg" viewBox="0 0 216 216"><path fill="none" stroke="#333" stroke-linejoin="round" stroke-width="12" d="M191.14 60v96l-31.18-78zm-31.18 18 31.18 78L108 168zm31.18-18-31.18 18L108 12zm0 96L108 204v-36zM108 12l51.96 66H56.04zm51.96 66L108 168 56.04 78zM108 168v36l-83.14-48zm0-156L56.04 78 24.86 60zM56.04 78 108 168l-83.14-12zm0 0-31.18 78V60z"/></svg>

<svg xmlns="http://www.w3.org/2000/svg" viewBox="0 0 216 216">
<path fill="none" stroke="#333" stroke-linejoin="round" stroke-width="12" d="M191.14,60 L191.14,156 L159.96,78z
M159.96,78 L191.14,156 L108,168z
M191.14,60 L159.96,78 L108,12z
M191.14,156 L108,204 L108,168z
M108,12 L159.96,78 L56.04,78z
M159.96,78 L108,168 L56.04,78z
M108,168 L108,204 L24.86,156z
M108,12 L56.04,78 L24.86,60z
M56.04,78 L108,168 L24.86,156z
M56.04,78 L24.86,156 L24.86,60z"/>
</svg>
